build/img/icon/wk.svg

<svg width="44.000000" height="44.000000" viewBox="0 0 44 44" fill="none" xmlns="http://www.w3.org/2000/svg" xmlns:xlink="http://www.w3.org/1999/xlink">
	<desc>
			Created with Pixso.
	</desc>
	<defs>
		<clipPath id="clip42_1110">
			<rect id="basil:vk-solid" width="24.000000" height="24.000000" transform="translate(10.000000 10.000000)" fill="white" fill-opacity="0"/>
		</clipPath>
	</defs>
	<rect id="Social_icon" rx="22.000000" width="44.000000" height="44.000000" fill="#FCFCFC" fill-opacity="0.120000"/>
	<rect id="basil:vk-solid" width="24.000000" height="24.000000" transform="translate(10.000000 10.000000)" fill="#FFFFFF" fill-opacity="0"/>
	<g clip-path="url(#clip42_1110)">
		<path id="Vector" d="M31.503 28.3813L29.222 28.3813C28.359 28.3813 28.099 27.6824 26.552 26.1343C25.2 24.8313 24.629 24.6694 24.287 24.6694C23.814 24.6694 23.685 24.7993 23.685 25.4504L23.685 27.5024C23.685 28.0574 23.505 28.3823 22.055 28.3823C20.6483 28.2878 19.2841 27.8606 18.075 27.1355C16.8658 26.4104 15.8461 25.4087 15.1 24.2124C13.3284 22.0073 12.0957 19.4194 11.5 16.6543C11.5 16.3123 11.63 16.0024 12.282 16.0024L14.562 16.0024C15.148 16.0024 15.359 16.2634 15.589 16.8665C16.696 20.1243 18.585 22.9583 19.352 22.9583C19.646 22.9583 19.774 22.8284 19.774 22.0952L19.774 18.7393C19.677 17.2083 18.864 17.0793 18.864 16.5254C18.8743 16.3792 18.9411 16.2427 19.0504 16.145C19.1596 16.0474 19.3026 15.9963 19.449 16.0024L23.033 16.0024C23.523 16.0024 23.685 16.2463 23.685 16.8323L23.685 21.3623C23.685 21.8513 23.895 22.0134 24.043 22.0134C24.337 22.0134 24.563 21.8513 25.102 21.3132C26.2574 19.9043 27.2013 18.3345 27.904 16.6533C27.9759 16.4514 28.1119 16.2788 28.2912 16.1614C28.4705 16.0439 28.6832 15.9885 28.897 16.0034L31.178 16.0034C31.862 16.0034 32.007 16.3452 31.862 16.8333C31.0324 18.6917 30.0058 20.4558 28.8 22.0952C28.554 22.4702 28.456 22.6653 28.8 23.1052C29.026 23.4473 29.826 24.1152 30.363 24.7502C31.145 25.5303 31.794 26.4324 32.285 27.4204C32.481 28.0564 32.154 28.3813 31.503 28.3813Z" fill="#FCFCFC" fill-opacity="1.000000" fill-rule="evenodd"/>
	</g>
</svg>

<svg width="44" height="44" viewBox="0 0 44 44" fill="none" xmlns="http://www.w3.org/2000/svg"><defs><clipPath id="clip42_1110"><path id="basil:vk-solid" transform="translate(10 10)" fill="#fff" fill-opacity="0" d="M0 0h24v24H0z"/></clipPath></defs><rect id="Social_icon" rx="22" width="44" height="44" fill="#FCFCFC" fill-opacity=".12"/><path id="basil:vk-solid" transform="translate(10 10)" fill="#FFF" fill-opacity="0" d="M0 0h24v24H0z"/><g clip-path="url(#clip42_1110)"><path id="Vector" d="M31.503 28.381h-2.281c-.863 0-1.123-.699-2.67-2.247-1.352-1.303-1.923-1.465-2.265-1.465-.473 0-.602.13-.602.781v2.052c0 .555-.18.88-1.63.88a8.898 8.898 0 01-6.955-4.17 18.181 18.181 0 01-3.6-7.558c0-.342.13-.652.782-.652h2.28c.586 0 .797.261 1.027.864 1.107 3.258 2.996 6.092 3.763 6.092.294 0 .422-.13.422-.863V18.74c-.097-1.53-.91-1.66-.91-2.214a.563.563 0 01.585-.523h3.584c.49 0 .652.244.652.83v4.53c0 .49.21.651.358.651.294 0 .52-.162 1.059-.7a18.754 18.754 0 002.802-4.66.982.982 0 01.993-.65h2.281c.684 0 .829.342.684.83a28.463 28.463 0 01-3.062 5.262c-.246.375-.344.57 0 1.01.226.342 1.026 1.01 1.563 1.645.782.78 1.431 1.682 1.922 2.67.196.636-.131.961-.782.961z" fill="#FCFCFC" fill-opacity="1" fill-rule="evenodd"/></g></svg>
